X:142
T:The Cottage in the Grove
R:reel
B:
M:C
L:1/8
K:G
ABAG AE E2|GABd egdg|eaab gedB|(3ABc BG AE E2|
ABAG AE E2|GABd egdg|eaab gedB|AcBG A2 A2||
a2 b/a/g aeef|gedB ABGE|g2 a/g/e gdBd|cABG AE E2|
A2 b/a/g aeef|gedB ABGE|GABd egdg|edcB A2 A2||
